gtk/icons/scalable/actions/edit-clear-all-symbolic.svg

<?xml version="1.0" encoding="UTF-8"?>
<svg height="16px" viewBox="0 0 16 16" width="16px">
  <path d="M 2 0 C 0.890625 0, 0 0.890625, 0 2 L 0 8 C 0 9.109375, 0.890625 10, 2 10 L 2 2 L 10 2 C 10 0.890625, 9.109375 0, 8 0 L 2 0 Z M 8 6 C 6.890625 6, 6 6.890625, 6 8 L 6 14 C 6 15.109375, 6.890625 16, 8 16 L 14 16 C 15.109375 16, 16 15.109375, 16 14 L 16 8 C 16 6.890625, 15.109375 6, 14 6 L 8 6 Z M 8.00390625 8 L 9.00390625 8 L 9.03515625 8 C 9.28906155 8.01171875, 9.54296875 8.12890625, 9.72265625 8.3125 L 11.0039062 9.59375 L 12.3125 8.3125 C 12.578125 8.08203125, 12.7578115 8.00781155, 13 8 L 14 8 L 14 9 C 14 9.28515625, 13.9648438 9.55078125, 13.75 9.75 L 12.46875 11.03125 L 13.71875 12.28125 C 13.90625 12.46875, 14 12.734375, 14 13 L 14 14 L 13 14 C 12.734375 14, 12.46875 13.90625, 12.28125 13.71875 L 11 12.4375 L 9.71875 13.71875 C 9.53125 13.90625, 9.265625 14, 9 14 L 8.00390625 14 L 8.00390625 13 C 8.00390625 12.734375, 8.09765625 12.46875, 8.28515625 12.28125 L 9.5625 11.03125 L 8.28515625 9.75 C 8.07421875 9.55468845, 7.98046923 9.28125, 8.00390625 9 L 8.00390625 8 Z M 5 3 C 3.890625 3, 3 3.890625, 3 5 L 3 11 C 3 12.109375, 3.890625 13, 5 13 L 5 5 L 13 5 C 13 3.890625, 12.109375 3, 11 3 L 5 3 Z"/>
</svg>

<?xml version="1.0" encoding="UTF-8"?>
<svg height="16px" viewBox="0 0 16 16" width="16px" xmlns="http://www.w3.org/2000/svg">
    <g fill="#2e3436">
        <path d="m 2 0 c -1.109375 0 -2 0.890625 -2 2 v 6 c 0 1.109375 0.890625 2 2 2 v -8 h 8 c 0 -1.109375 -0.890625 -2 -2 -2 z m 0 0"/>
        <path d="m 8 6 c -1.109375 0 -2 0.890625 -2 2 v 6 c 0 1.109375 0.890625 2 2 2 h 6 c 1.109375 0 2 -0.890625 2 -2 v -6 c 0 -1.109375 -0.890625 -2 -2 -2 z m 0.003906 2 h 1 h 0.03125 c 0.253906 0.011719 0.507813 0.128906 0.6875 0.3125 l 1.28125 1.28125 l 1.308594 -1.28125 c 0.265625 -0.230469 0.445312 -0.304688 0.6875 -0.3125 h 1 v 1 c 0 0.285156 -0.035156 0.550781 -0.25 0.75 l -1.28125 1.28125 l 1.25 1.25 c 0.1875 0.1875 0.28125 0.453125 0.28125 0.71875 v 1 h -1 c -0.265625 0 -0.53125 -0.09375 -0.71875 -0.28125 l -1.28125 -1.28125 l -1.28125 1.28125 c -0.1875 0.1875 -0.453125 0.28125 -0.71875 0.28125 h -0.996094 v -1 c 0 -0.265625 0.09375 -0.53125 0.28125 -0.71875 l 1.277344 -1.25 l -1.277344 -1.28125 c -0.210937 -0.195312 -0.304687 -0.46875 -0.28125 -0.75 z m 0 0"/>
        <path d="m 5 3 c -1.109375 0 -2 0.890625 -2 2 v 6 c 0 1.109375 0.890625 2 2 2 v -8 h 8 c 0 -1.109375 -0.890625 -2 -2 -2 z m 0 0"/>
    </g>
</svg>
